X: 62
T:Three Little Blackberries
% Nottingham Music Database
S:Newcastle Cloggies
M:4/4
L:1/8
R:Hornpipe
K:D
P:A
FG|"D"A2A2 "G"B2B2|"D"A^GAd f2df|"A7"e^def g2e2|"D"ddfd "A7"BGFG|
"D"A2A2 "G"B2B2|"D"A^GAd f2df|"A"e2ef "E7"eefe|"A"a2A2 A2:|
P:B
(3aba|"A7"gece Aege|"D"d2A2 -A2(3ded|"A7"c2a2 -(3agf(3ecB|"D"A2f2 -f2(3aba|
"A7"gece Aege|"D"d2A2 -A2dc|"G"Bdag "A7"feBc|"D"d2f2 d2:|<end>
<start>
